build/img/bell.svg

<svg width="28" height="28" viewBox="0 0 28 28" fill="none" xmlns="http://www.w3.org/2000/svg">
<path fill-rule="evenodd" clip-rule="evenodd" d="M24 19.2083C24 19.7376 23.5726 20.1667 23.0455 20.1667L17.3182 20.1667C17.3182 22.2838 15.6087 24 13.5 24C11.3913 24 9.68182 22.2838 9.68182 20.1667L3.95455 20.1667C3.42737 20.1667 3 19.7376 3 19.2083C3 18.6791 3.42736 18.25 3.95455 18.25C4.7889 18.25 5.21823 17.9224 5.47081 17.5702C5.75843 17.1692 5.86364 16.6591 5.86364 16.3333L5.86364 10.5833C5.86364 6.6737 8.77852 3.44757 12.5455 2.97598L12.5455 1.95833C12.5455 1.42906 12.9728 1 13.5 1C14.0272 1 14.4545 1.42906 14.4545 1.95833L14.4545 2.97598C18.2215 3.44757 21.1364 6.6737 21.1364 10.5833L21.1364 16.3333C21.1364 16.6591 21.2416 17.1692 21.5292 17.5702C21.7818 17.9224 22.2111 18.25 23.0455 18.25C23.5726 18.25 24 18.6791 24 19.2083ZM13.5 4.83333H13.4983C10.336 4.83428 7.77273 7.40828 7.77273 10.5833L7.77273 16.3333C7.77273 16.8521 7.65088 17.5692 7.29179 18.25L19.7082 18.25C19.3491 17.5692 19.2273 16.8521 19.2273 16.3333L19.2273 10.5833C19.2273 7.4077 16.6631 4.83333 13.5 4.83333ZM13.5 22.0833C12.4456 22.0833 11.5909 21.2252 11.5909 20.1667L15.4091 20.1667C15.4091 21.2252 14.5544 22.0833 13.5 22.0833Z" fill="#2858FF"/>
</svg>

<svg width="28" height="28" viewBox="0 0 28 28" fill="none" xmlns="http://www.w3.org/2000/svg"><path fill-rule="evenodd" clip-rule="evenodd" d="M24 19.208c0 .53-.427.959-.954.959h-5.728A3.826 3.826 0 0113.5 24a3.826 3.826 0 01-3.818-3.833H3.955A.956.956 0 013 19.208c0-.529.427-.958.955-.958.834 0 1.263-.328 1.516-.68.287-.4.393-.91.393-1.237v-5.75c0-3.91 2.915-7.135 6.682-7.607V1.958c0-.529.427-.958.954-.958.527 0 .954.43.954.958v1.018c3.767.472 6.682 3.698 6.682 7.607v5.75c0 .326.106.836.393 1.237.253.352.682.68 1.517.68.527 0 .954.43.954.958zM13.5 4.833h-.002c-3.162.001-5.725 2.575-5.725 5.75v5.75c0 .52-.122 1.236-.481 1.917h12.416a4.237 4.237 0 01-.48-1.917v-5.75c0-3.175-2.565-5.75-5.728-5.75zm0 17.25a1.913 1.913 0 01-1.91-1.916h3.82a1.913 1.913 0 01-1.91 1.916z" fill="#2858FF"/></svg>
